brandFactory_export/2.Regular/Nube_almacenamientoNube_2Regular.svg

<?xml version="1.0" encoding="UTF-8"?>
<svg width="24px" height="24px" viewBox="0 0 24 24" version="1.1" xmlns="http://www.w3.org/2000/svg" xmlns:xlink="http://www.w3.org/1999/xlink">
    <title>2.Regular/Nube_almacenamientoNube_2Regular</title>
    <g id="Symbols" stroke="none" stroke-width="1" fill="none" fill-rule="evenodd">
        <g id="2.Regular/Nube_almacenamientoNube_2Regular" fill="#5CB615" fill-rule="nonzero">
            <path d="M17.3680672,20.7462185 L4.86386555,20.7462185 C2.18151261,20.7462185 0,18.5613445 0,15.8823529 C0,14.7966387 0.376470588,13.7579832 1.08907563,12.8773109 C1.73109244,12.0806723 2.60168067,11.4890756 3.54285714,11.2033613 C3.60672269,9.25042017 4.29579832,7.47226891 5.50252101,6.17478992 C6.78991597,4.78655462 8.59831933,4.02352941 10.5882353,4.02352941 C13.4453782,4.02689076 16.0537815,5.6605042 17.3008403,8.23529412 L17.3714286,8.23529412 C20.8235294,8.23529412 23.6302521,11.0420168 23.6302521,14.4941176 C23.6302521,17.9462185 20.8168067,20.7462185 17.3680672,20.7462185 Z M10.5848739,5.36470588 C9.76134454,5.36470588 8.98151261,5.51932773 8.27226891,5.82521008 C7.59327731,6.11764706 6.98487395,6.54789916 6.48403361,7.08907563 C5.4487395,8.20504202 4.88067227,9.76806723 4.88067227,11.4957983 C4.88067227,11.8285714 4.72605042,12.2655462 3.99327731,12.4705882 C3.28403361,12.6722689 2.62184874,13.1159664 2.13109244,13.7210084 C1.77478992,14.1647059 1.34453782,14.9042017 1.34453782,15.8823529 C1.34789916,17.8252101 2.9210084,19.3983193 4.86386555,19.4016807 L17.3680672,19.4016807 C20.0773109,19.4016807 22.2823529,17.1966387 22.2823529,14.487395 C22.2823529,11.7781513 20.0773109,9.57310924 17.3680672,9.57310924 C17.307563,9.57310924 17.2369748,9.57647059 17.1663866,9.57983193 C17.1159664,9.58319328 17.0689076,9.58319328 17.0184874,9.58655462 C16.8369748,9.59327731 16.3865546,9.54621849 16.1647059,8.98487395 L16.1613445,8.97478992 C15.1764706,6.77983193 12.994958,5.36806723 10.5848739,5.36470588 L10.5848739,5.36470588 Z" id="Nube_almacenamientoNube_2Regular"></path>
        </g>
    </g>
</svg>

<svg width="24" height="24" viewBox="0 0 24 24" xmlns="http://www.w3.org/2000/svg"><path d="M17.368 20.746H4.864A4.871 4.871 0 010 15.882c0-1.085.376-2.124 1.09-3.005a5.09 5.09 0 012.453-1.674c.064-1.953.753-3.73 1.96-5.028 1.287-1.388 3.095-2.151 5.085-2.151a7.468 7.468 0 016.713 4.211h.07a6.265 6.265 0 016.26 6.26c0 3.451-2.814 6.251-6.263 6.251zM10.585 5.365a5.81 5.81 0 00-2.313.46A5.282 5.282 0 006.484 7.09c-1.035 1.116-1.603 2.68-1.603 4.407 0 .333-.155.77-.888.975a3.757 3.757 0 00-1.862 1.25c-.356.444-.786 1.183-.786 2.161a3.525 3.525 0 003.519 3.52h12.504a4.92 4.92 0 004.914-4.915 4.92 4.92 0 00-4.914-4.914c-.06 0-.131.003-.202.007-.05.003-.097.003-.148.007-.181.006-.631-.04-.853-.602l-.004-.01a6.117 6.117 0 00-5.576-3.61z" fill="#5CB615" fill-rule="nonzero"/></svg>
